X:259
%%etbk:tnset id:78,pos:1,rep:3x,ant:
%%etbk:wsite http://www.thesession.org/tunes/display/1043
%%etbk:video src:ytube,cde:UfjMsl0tdSA,desc:
%%etbk:color #e6ffe6
%%etbk:pldat 2016-09-07T15:56,2016-04-11T18:20,2015-11-29T15:25,2015-07-17T11:28,2015-07-07T11:03,2015-03-28T16:04,2015-01-21T18:32,2015-01-18T11:01,2014-12-31T14:57,2014-12-18T18:09,2014-12-14T15:20,2014-12-13T16:18,2014-12-10T16:35,2014-12-09T17:45,2014-12-07T10:09,2014-09-15T18:47,2014-05-20T16:52,2014-05-17T14:19,2014-05-14T17:13,2014-05-12T17:57,2014-05-11T11:58,2014-05-09T19:28,2014-05-08T18:08,2014-05-07T16:36,2014-05-06T16:35,2014-04-27T13:00,2014-04-06T16:28,2014-03-26T17:24,2014-03-25T17:17,2014-03-18T17:31,2014-03-16T17:22,2014-03-14T18:12,2014-02-14T17:29,2014-02-09T13:01,2013-12-11T18:53,2013-12-07T17:41,2013-12-04T18:26,2013-11-21T18:38,2013-11-16T14:49,2013-11-13T16:43,2013-11-12T19:13,2013-10-15T18:58,2013-10-13T16:45,2013-10-11T18:57,2013-10-10T19:35,2013-10-08T17:22,2013-10-05T16:13,2013-10-01T18:59,2013-09-27T17:43,2013-05-06T18:09,2013-05-01T17:39
T: Humors Of Kilclogher
Z: Piano Box Version by Martin Fleischmann
H: Created 2013-02-19 /  Last Modified 2016-04-11
M: 6/8
L: 1/8
R: jig
K: Dmix
 !4!B |: "C"!3!AGE !2!G2!1!E | !5!c2!1!E !1!EFG |"D" !1!D !3!(3D!2!D!1!D !1!D2E | !4!GED !1!D2!4!B |
"C"!3!AGE !2!G2E | !5!c2!1!E !1!D!1!E!2!G | "D"!3!AAA !4!B!2!G!1!E | !3!AAA A3:|
!4!B |: "C"!3!c2B !3!c2d | !5!e!3!c!1!A !1!AB!3!c | "G"!2!BGG !1!GAB | !5!dBG !1!GA!3!B |
"C"!3!c2B !3!c2d | !5!ecA !1!AB!3!c | "G"!2!BG!1!G !1!G!2!A!3!B | "D"!2!AAA A3:|


